!!!OTL:Heut' so und morgen so.
!!!OTL-incipit:DIE MAENNER SIND VERAENDERLICH
!!!COM: F. F. Hurka
!!!ARE: Europa, Mitteleuropa, Deutschland
!!!SCT: F0170
!!!TXL: @@DE
!!!YEM: Copyright 1995, estate of Helmut Schaffrath.
**kern	**text
*ICvox	*
*M2/4	*
*k[f#c#g#]	*
*A:	*
!LO:TX:a:t=Mit scherzhafter Laune.	!
{8ee	Die
=1	=1
8ee	Männer
8ff#	.
8dd	sind
8ee	ver-
=2	=2
8cc#	-än-
8dd	-der-
8b}	-lich,
{8cc#	heut'
=3	=3
8a	so
8a	und
8b/	morgen
8b/	.
=4	=4
4e	so;
8r}	.
{8e	kaum
=5	=5
8f#	zeigt
8g#	ein
8a	Ro-
8b/	-sen-
=6	=6
8cc#	-wöllklein
8dd	.
8ee}	sich,
{8ee	so
=7	=7
8dd#	sind
8ff#	sie
8b	hell
8dd#	und
=8	=8
4ee	froh!
8r}	.
{8e	Doch
=9	=9
(8aqq	.
8g#)	morgen?
8g#	.
8r	.
8g#	doch
=10	=10
(8cc#qq	.
8b)	morgen?
8b	.
8r;	.
8b	doch
=11	=11
(8eeqq	.
8dd)	morgen?
8dd	.
8r;}	.
{8ee	Ei
=12	=12
4cc#	wie
4b	ge-
=13	=13
4a	-schwind
4r	.
=14	=14
4ff#	dreht
8ee	sich
8g#	der
=15	=15
4a	Wind!
8r}	.
==	==
!!!AGN: Liebes - Lied, Spott, Moral
!!!ONB: ESAC (Essen Associative Code) Database: FINK
!!!AMT: simple duple
!!!AIN: vox
!!!EED: Helmut Schaffrath
!!!EEV: 1.0
!!!source: Musikalischer Hausschatz der Deutschen. Eine Sammlung von über 1000 Liedern und Gesängen mit Singstimmen und Klavierbegleitung. Leipzig, Litterarisches Verlags-Haus.
!!!page: 99
!!!ENC: Anna Maria Matuszewska
!!!EEV: 2025/03/11
*-	*-
